X: 10633
T: Down By The Green Bushes
R: waltz
M: 3/4
K: Adorian
BA|A2 Ac BA|G2 A2 Bd|e2 ed BA|G3A BG|
A2 Ac BA|G2 A2 Bd|e2 ef gf|e4 e^d|
e2 a2 e^d|e2 f2 g2|B2 dc BA|G3A BG|
A2 Ac BA|G2 A2 Bd|e2 ed B2|A4||

